subcellular/src/assets/icons/svg/rss2.svg

<svg xmlns="http://www.w3.org/2000/svg" width="32" height="32" viewBox="0 0 32 32"><path fill="#FFF" d="M26.345 31.5C26.082 17.359 14.64 5.906.512 5.642V.504C17.478.77 31.231 14.527 31.496 31.5h-5.151zm-10.882 0a15.34 15.34 0 0 0-4.529-10.456 15.348 15.348 0 0 0-10.43-4.529v-5.137c10.978.263 19.857 9.145 20.12 20.122h-5.161zM4.26 31.463c-2.073 0-3.76-1.679-3.76-3.742a3.761 3.761 0 0 1 3.76-3.753 3.764 3.764 0 0 1 3.766 3.753c-.001 2.063-1.69 3.742-3.766 3.742z"/><path fill="#C8C8C8" d="M1.012 1.016C17.305 1.536 30.465 14.7 30.984 31h-4.152C26.317 16.981 15.018 5.672 1.012 5.156v-4.14m-.008 10.88c10.303.505 18.594 8.798 19.101 19.104H15.94a15.828 15.828 0 0 0-4.652-10.309c-2.781-2.783-6.401-4.415-10.285-4.654v-4.141M4.26 24.468a3.263 3.263 0 0 1 3.266 3.253c0 1.788-1.465 3.242-3.266 3.242-1.797 0-3.26-1.454-3.26-3.242a3.26 3.26 0 0 1 3.26-3.253M.012 0v6.137C14.254 6.137 25.85 17.74 25.85 32H32C32 14.36 17.648 0 .012 0zM.008 10.872H.004v6.135c3.995 0 7.75 1.562 10.577 4.392a14.877 14.877 0 0 1 4.39 10.602h6.159c0-11.651-9.48-21.129-21.122-21.129zM4.26 23.468A4.265 4.265 0 0 0 0 27.721c0 2.35 1.91 4.242 4.26 4.242 2.358 0 4.266-1.896 4.266-4.242a4.266 4.266 0 0 0-4.266-4.253z"/></svg>

<?xml version="1.0" encoding="utf-8"?>
<!-- Generator: Adobe Illustrator 14.0.0, SVG Export Plug-In . SVG Version: 6.00 Build 43363)  -->
<!DOCTYPE svg PUBLIC "-//W3C//DTD SVG 1.1//EN" "http://www.w3.org/Graphics/SVG/1.1/DTD/svg11.dtd">
<svg version="1.1" id="Layer_1" xmlns="http://www.w3.org/2000/svg" xmlns:xlink="http://www.w3.org/1999/xlink" x="0px" y="0px"
	 width="32px" height="32px" viewBox="0 0 32 32" enable-background="new 0 0 32 32" xml:space="preserve">
<g>
	<g>
		<path fill="#FFFFFF" d="M26.345,31.5C26.082,17.359,14.64,5.906,0.512,5.642V0.504C17.478,0.77,31.231,14.527,31.496,31.5H26.345z
			 M15.463,31.5c-0.124-3.962-1.721-7.659-4.529-10.456c-2.804-2.807-6.492-4.404-10.43-4.529v-5.137
			c10.978,0.263,19.857,9.145,20.12,20.122H15.463z M4.26,31.463c-2.073,0-3.76-1.679-3.76-3.742c0-2.069,1.687-3.753,3.76-3.753
			c2.076,0,3.766,1.684,3.766,3.753C8.025,29.784,6.336,31.463,4.26,31.463L4.26,31.463z"/>
		<path fill="#C8C8C8" d="M1.012,1.016C17.305,1.536,30.465,14.7,30.984,31h-4.152C26.317,16.981,15.018,5.672,1.012,5.156V1.016
			 M1.004,11.896C11.307,12.401,19.598,20.694,20.105,31H15.94c-0.238-3.906-1.869-7.536-4.652-10.309
			c-2.781-2.783-6.401-4.415-10.285-4.654V11.896 M4.26,24.468c1.801,0,3.266,1.459,3.266,3.253c0,1.788-1.465,3.242-3.266,3.242
			c-1.797,0-3.26-1.454-3.26-3.242C1,25.927,2.462,24.468,4.26,24.468 M0.012,0v6.137C14.254,6.137,25.85,17.74,25.85,32H32
			C32,14.36,17.648,0,0.012,0L0.012,0z M0.008,10.872H0.004v6.135c3.995,0,7.75,1.562,10.577,4.392
			c2.829,2.818,4.39,6.594,4.39,10.602h6.159C21.13,20.35,11.65,10.872,0.008,10.872L0.008,10.872z M4.26,23.468
			c-2.35,0-4.26,1.915-4.26,4.253c0,2.35,1.91,4.242,4.26,4.242c2.358,0,4.266-1.896,4.266-4.242
			C8.525,25.383,6.618,23.468,4.26,23.468L4.26,23.468z"/>
	</g>
</g>
</svg>
